X: 4733
T: Boys Of Ballisodare, The
R: reel
M: 4/4
K: Fmajor
cF ~F2 cFdF|cF ~F2 AGG2|cF ~F2 cdcA|GcAG FDC2|
cF ~F2 cFdF|cF ~F2 AGGA|FGAc dzcA|GcAG FD C2||
fefg agag|fefg afde|f2cf afge|fddc Acde|
fefg agag|fefg afdf|afge fdcA|GcAG FDC c||
Ac ~c2 Acfc|Acfc AGG2|Ac ~c2 dzcA|GcAG FDC c|
Ac ~c2 Acfc|Acfc AGG2|dA ~A2 dAcA|GcAG FD C2||

